X:1
T:Sorrento, 87.87 D
T:Sorrento, 87.87 D
T:John H. Deane (1824-1881)
T:Public Domain Courtesy of the Cyber Hymnal™
C:John H. Deane (1824-1881)
Z:Public Domain
Z:Courtesy of the Cyber Hymnal™
%%score ( 1 2 ) ( 3 4 )
L:1/8
Q:1/4=108
M:4/4
K:E
V:1 treble 
V:2 treble 
V:3 bass 
V:4 bass 
V:1
 [EG]2 [EG]2 | [DB]2 [DB]2 [CE]2 [CE]2 | [^B,G]2 [B,G]2 C2 [=B,D]2 | E2 [B,F]2 [EG]2 ([GB][FA]) | %4
 [DF]4 [EG]2 [EG]2 | [FB]2 [FB]2 [Ee]2 [Ge]2 | [Fe]2 [Fd]2 [Ec]2 [EB]2 | [EA]2 [EG]2 [EF]2 (GF) | %8
 [DB]4 [DF]2 [^^C^E]2 | [DG]2 [DF]2 [EB]2 [^^F^A]2 | [^^Fc]2 [GB]2 [D^F]2 [^^C^E]2 | %11
 [DG]2 [DF]2 [EB]2 [^^F^A]2 | ([^^Fc]2 [GB]2) [Ee]2 [Ge]2 | [Fe]2 [Fd]2 [Ec]2 [Ec]2 | %14
 [=Dc]2 [DB]2 [CA]2 [^EG]2 | F2 (GF) [Dc]2 [DB]2 | E4 |] %17
V:2
 x4 | x8 | x4 C2 x2 | E2 x6 | x8 | x8 | x8 | x6 E2 | x8 | x8 | x8 | x8 | x8 | x8 | x8 | F2 =E2 x4 | %16
 E4 |] %17
V:3
 [E,B,]2 [E,B,]2 | [B,,A,]2 [B,,A,]2 [C,G,]2 [C,G,]2 | [G,,F,]2 [G,,F,]2 [A,,E,]2 [B,,A,]2 | %3
 [C,G,]2 [D,B,]2 [E,B,]2 [A,,C]2 | [B,,B,]4 [E,B,]2 [E,B,]2 | [D,B,]2 [D,B,]2 [C,C]2 [E,C]2 | %6
 [G,^B,]2 [G,B,]2 [=A,,C]2 [^B,,G,]2 | [C,A,]2 [B,,B,]2 [^A,,C]2 [C,^A,]2 | %8
 [B,,B,]4 [A,B,]2 [G,B,]2 | [A,B,]2 [A,B,]2 [G,B,]2 [E,C]2 | [E,^A,]2 [E,B,]2 [=A,B,]2 [G,B,]2 | %11
 [A,B,]2 [A,B,]2 [G,B,]2 [E,C]2 | (^A,2 B,2) [C,C]2 [E,C]2 | [G,^B,]2 [G,B,]2 [A,C]2 [C,A,]2 | %14
 [E,G,]2 [E,G,]2 [F,A,]2 [G,B,]2 | [A,C]2 [F,^A,]2 [B,,=A,]2 [B,,A,]2 | [E,G,]4 |] %17
V:4
 x4 | x8 | x8 | x8 | x8 | x8 | x8 | x8 | x8 | x8 | x8 | x8 | F,4 x4 | x8 | x8 | x8 | x4 |] %17

